assets/Hedgehog/Flat/hedgehog_flat.svg

<svg width="32" height="32" viewBox="0 0 32 32" fill="none" xmlns="http://www.w3.org/2000/svg">
<path d="M14.02 25.3251H17.02L17.95 29.6251C17.99 29.8151 17.84 30 17.64 30H15.28C15.13 30 15 29.9051 14.97 29.7551L14.02 25.3251Z" fill="#D3883E"/>
<path d="M23.94 25.3251H20.94L20.02 29.6151C19.98 29.8051 20.13 29.9951 20.33 29.9951H22.69C22.84 29.9951 22.97 29.8951 23 29.7451L23.94 25.3251Z" fill="#D3883E"/>
<path d="M20.03 9.94507C18.45 9.94507 16.97 10.3751 15.71 11.1151L7.67 15.5751C6.63 16.1651 5.99 17.2751 5.99 18.4651V19.4151C5.99 19.9751 5.67 20.4951 5.17 20.7451L2.49 22.0451C2.15 22.2151 2 22.5851 2 22.9551C2 24.4551 3.11 26.9951 6.85 26.9951H9.7L8.54 29.5351C8.45 29.7551 8.61 29.9951 8.85 29.9951H11.45C11.58 29.9951 11.7 29.9151 11.76 29.7951L13.03 26.9951H24.71C24.86 26.9951 24.99 27.1151 24.99 27.2751V29.6651C24.99 29.8451 25.14 29.9951 25.32 29.9951H27.65C27.83 29.9951 27.98 29.8451 27.98 29.6651V25.1651L28.6 18.5051C28.6 13.7751 24.76 9.94507 20.03 9.94507Z" fill="#F3AD61"/>
<path d="M12.61 19.545C13.2009 19.545 13.68 19.066 13.68 18.475C13.68 17.8841 13.2009 17.405 12.61 17.405C12.019 17.405 11.54 17.8841 11.54 18.475C11.54 19.066 12.019 19.545 12.61 19.545Z" fill="#D3883E"/>
<path d="M29.92 19.965C30.03 19.705 29.99 19.405 29.82 19.175L29.42 18.655C29.14 18.285 29.07 17.785 29.25 17.355L29.85 15.865C29.99 15.525 29.88 15.125 29.58 14.915L28.53 14.165C28.18 13.915 27.97 13.515 27.97 13.085V11.425C27.97 10.985 27.61 10.625 27.17 10.625H25.31C24.91 10.625 24.53 10.445 24.28 10.135L23.13 8.73503C22.9 8.45503 22.52 8.36503 22.19 8.50503L20.46 9.26503C20.2 9.37503 19.92 9.40503 19.65 9.34503L17.86 8.96503C17.58 8.90503 17.29 9.00503 17.1 9.21503L15.9 10.555C15.65 10.835 15.29 11.005 14.91 11.005H13.13C12.83 11.005 12.55 11.175 12.42 11.445L11.92 12.415C11.69 12.865 11.23 13.145 10.73 13.145H9.91999C9.60999 13.145 9.32999 13.325 9.18999 13.605L8.77999 14.505C8.57999 14.935 8.03999 15.275 7.56999 15.275H6.78999C6.34999 15.275 5.98999 15.635 5.98999 16.075V18.475C5.98999 18.475 8.67999 18.475 9.85999 18.475C10.18 18.475 10.46 18.265 10.54 17.955C10.78 16.995 11.66 16.305 12.7 16.345C13.78 16.395 14.67 17.265 14.73 18.345C14.79 19.365 14.13 20.235 13.22 20.515C13.2 20.525 13.18 20.525 13.17 20.535C13.16 20.535 13.15 20.545 13.14 20.545C13.11 20.555 13.08 20.555 13.05 20.565C14.22 23.205 16.85 25.005 19.99 25.005H28L29.53 23.835C29.69 23.715 29.81 23.535 29.84 23.335C29.86 23.185 29.84 23.025 29.77 22.875L29.46 22.215C29.3 21.875 29.29 21.485 29.44 21.135L29.92 19.965Z" fill="#6D4534"/>
<path d="M3.94002 22.885C3.94002 23.4152 3.51021 23.845 2.98002 23.845C2.44983 23.845 2.02002 23.4152 2.02002 22.885C2.02002 22.3549 2.44983 21.925 2.98002 21.925C3.51021 21.925 3.94002 22.3549 3.94002 22.885Z" fill="#1C1C1C"/>
<path d="M8.5 22.75C8.5 23.1642 8.16421 23.5 7.75 23.5C7.33579 23.5 7 23.1642 7 22.75C7 22.3358 7.33579 22 7.75 22C8.16421 22 8.5 22.3358 8.5 22.75Z" fill="#1C1C1C"/>
<path d="M19.85 13.3651C19.76 13.4551 19.63 13.5151 19.5 13.5151C19.22 13.5151 19 13.2951 19 13.0151V11.7151C19 11.4351 19.22 11.2151 19.5 11.2151C19.78 11.2151 20 11.4351 20 11.7151V13.0151C20 13.1451 19.94 13.2751 19.85 13.3651Z" fill="#F3AD61"/>
<path d="M24.99 17.85C24.9 17.76 24.84 17.63 24.84 17.5C24.84 17.22 25.06 17 25.34 17H26.64C26.92 17 27.14 17.22 27.14 17.5C27.14 17.78 26.92 18 26.64 18H25.34C25.2 18 25.08 17.94 24.99 17.85Z" fill="#F3AD61"/>
<path d="M23.07 14.8451C23.16 14.9451 23.29 14.9951 23.42 14.9951C23.55 14.9951 23.68 14.9551 23.78 14.8451L24.7 13.9351C24.9 13.7351 24.9 13.4251 24.7 13.2251C24.5 13.0251 24.19 13.0251 23.99 13.2251L23.07 14.1351C22.87 14.3351 22.87 14.6451 23.07 14.8451Z" fill="#F3AD61"/>
</svg>

<svg xmlns="http://www.w3.org/2000/svg" width="32" height="32" fill="none"><path fill="#D3883E" d="M14.02 25.325h3l.93 4.3c.04.19-.11.375-.31.375h-2.36a.307.307 0 0 1-.31-.245l-.95-4.43ZM23.94 25.325h-3l-.92 4.29c-.04.19.11.38.31.38h2.36c.15 0 .28-.1.31-.25l.94-4.42Z"/><path fill="#F3AD61" d="M20.03 9.945c-1.58 0-3.06.43-4.32 1.17l-8.04 4.46c-1.04.59-1.68 1.7-1.68 2.89v.95c0 .56-.32 1.08-.82 1.33l-2.68 1.3c-.34.17-.49.54-.49.91 0 1.5 1.11 4.04 4.85 4.04H9.7l-1.16 2.54c-.09.22.07.46.31.46h2.6c.13 0 .25-.08.31-.2l1.27-2.8h11.68c.15 0 .28.12.28.28v2.39c0 .18.15.33.33.33h2.33c.18 0 .33-.15.33-.33v-4.5l.62-6.66c0-4.73-3.84-8.56-8.57-8.56Z"/><path fill="#D3883E" d="M12.61 19.545a1.07 1.07 0 1 0 0-2.14 1.07 1.07 0 0 0 0 2.14Z"/><path fill="#6D4534" d="M29.92 19.965c.11-.26.07-.56-.1-.79l-.4-.52c-.28-.37-.35-.87-.17-1.3l.6-1.49c.14-.34.03-.74-.27-.95l-1.05-.75c-.35-.25-.56-.65-.56-1.08v-1.66c0-.44-.36-.8-.8-.8h-1.86c-.4 0-.78-.18-1.03-.49l-1.15-1.4a.804.804 0 0 0-.94-.23l-1.73.76c-.26.11-.54.14-.81.08l-1.79-.38a.803.803 0 0 0-.76.25l-1.2 1.34c-.25.28-.61.45-.99.45h-1.78c-.3 0-.58.17-.71.44l-.5.97c-.23.45-.69.73-1.19.73h-.81a.82.82 0 0 0-.73.46l-.41.9c-.2.43-.74.77-1.21.77h-.78c-.44 0-.8.36-.8.8v2.4h3.87c.32 0 .6-.21.68-.52a2.13 2.13 0 0 1 2.16-1.61c1.08.05 1.97.92 2.03 2a2.14 2.14 0 0 1-1.51 2.17c-.02.01-.04.01-.05.02-.01 0-.02.01-.03.01-.03.01-.06.01-.09.02 1.17 2.64 3.8 4.44 6.94 4.44H28l1.53-1.17c.16-.12.28-.3.31-.5.02-.15 0-.31-.07-.46l-.31-.66c-.16-.34-.17-.73-.02-1.08l.48-1.17Z"/><path fill="#1C1C1C" d="M3.94 22.885a.96.96 0 1 1-1.92 0 .96.96 0 0 1 1.92 0ZM8.5 22.75a.75.75 0 1 1-1.5 0 .75.75 0 0 1 1.5 0Z"/><path fill="#F3AD61" d="M19.85 13.365a.495.495 0 0 1-.85-.35v-1.3c0-.28.22-.5.5-.5s.5.22.5.5v1.3c0 .13-.06.26-.15.35ZM24.99 17.85a.495.495 0 0 1 .35-.85h1.3c.28 0 .5.22.5.5s-.22.5-.5.5h-1.3a.49.49 0 0 1-.35-.15ZM23.07 14.845c.09.1.22.15.35.15.13 0 .26-.04.36-.15l.92-.91c.2-.2.2-.51 0-.71-.2-.2-.51-.2-.71 0l-.92.91c-.2.2-.2.51 0 .71Z"/></svg>
